svgs/solid/cloud-hail.svg

<svg xmlns="http://www.w3.org/2000/svg" viewBox="0 0 512 512"><!--! Font Awesome Pro 6.0.0-alpha3 by @fontawesome - https://fontawesome.com License - https://fontawesome.com/license (Commercial License) --><path d="M416 128c-.625 0-1.125 .25-1.625 .25C415.5 123 416 117.6 416 112C416 67.75 380.2 32 336 32c-24.62 0-46.25 11.25-61 28.75C256.4 24.75 219.2 0 176 0C114.1 0 64 50.12 64 112c0 7.25 .75 14.25 2.125 21.25C27.75 145.8 0 181.5 0 224c0 53 43 96 96 96h320c53 0 96-43 96-96S469 128 416 128zM384 352c-17.75 0-32 14.25-32 32s14.25 32 32 32s32-14.25 32-32S401.8 352 384 352zM192 448c-17.75 0-32 14.25-32 32s14.25 32 32 32s32-14.25 32-32S209.8 448 192 448zM320 448c-17.75 0-32 14.25-32 32s14.25 32 32 32s32-14.25 32-32S337.8 448 320 448zM256 352c-17.75 0-32 14.25-32 32s14.25 32 32 32s32-14.25 32-32S273.8 352 256 352zM64 448c-17.75 0-32 14.25-32 32s14.25 32 32 32s32-14.25 32-32S81.75 448 64 448zM128 352c-17.75 0-32 14.25-32 32s14.25 32 32 32s32-14.25 32-32S145.8 352 128 352z"/></svg>

<svg xmlns="http://www.w3.org/2000/svg" viewBox="0 0 512 512"><!-- Font Awesome Pro 5.15.3 by @fontawesome - https://fontawesome.com License - https://fontawesome.com/license (Commercial License) --><path d="M416 128c-.6 0-1.1.2-1.6.2 1.1-5.2 1.6-10.6 1.6-16.2 0-44.2-35.8-80-80-80-24.6 0-46.3 11.3-61 28.8C256.4 24.8 219.3 0 176 0 114.1 0 64 50.1 64 112c0 7.3.8 14.3 2.1 21.2C27.8 145.8 0 181.5 0 224c0 53 43 96 96 96h320c53 0 96-43 96-96s-43-96-96-96zm-32 224c-17.7 0-32 14.3-32 32s14.3 32 32 32 32-14.3 32-32-14.3-32-32-32zm-192 96c-17.7 0-32 14.3-32 32s14.3 32 32 32 32-14.3 32-32-14.3-32-32-32zm128 0c-17.7 0-32 14.3-32 32s14.3 32 32 32 32-14.3 32-32-14.3-32-32-32zm-64-96c-17.7 0-32 14.3-32 32s14.3 32 32 32 32-14.3 32-32-14.3-32-32-32zM64 448c-17.7 0-32 14.3-32 32s14.3 32 32 32 32-14.3 32-32-14.3-32-32-32zm64-96c-17.7 0-32 14.3-32 32s14.3 32 32 32 32-14.3 32-32-14.3-32-32-32z"/></svg>
